!!!OTL: Graf und Nonne (Die Nonne) Steig ich auf das Berglein
!!!ARE: Europa, Osteuropa, Ungarn, Felsoeszentivan, Csavoly
!!!YOR: 8, S. 112
!!    1985 aufgezeichnet
!!!SCT: Q0155s
!!!YEM: Copyright 1995, estate of Helmut Schaffrath.
**kern
*ICvox
*Ivox
*M6/8
*k[f#]
*e:
=1
{4gn
8f#
4e
8e
=2
8b
4b
4r}
{8b
=3
4a
8b
8ee
8ee
8ccn
=4
4.b
4r}
{8b
=5
8ee
8ee
8b
8ddn
8ccn
8b
=6
4.a
4b}
{8dn
=7
8gn
8gn
8gn
8a
8gn
8f#
=8
4.e
4r}
{8b
=9
8ee
8ee
8b
8ddn
8ccn
8b
=10
4.a
4b}
{8dn
=11
8gn
8gn
8gn
8a
8gn
8f#
=12
4.e
4.r}
==
!!!AGN: Ballade, Standesunterschied, vergebliche Werbung, Liebe, Klage
!! Eingeklammerte Noten (Strophenvariante) nicht gespielt.
!!!ONB: ESAC (Essen Associative Code) Database: BALLADE
!!!AMT: compound duple
!!!AIN: vox
!!!EED: Helmut Schaffrath
!!!EEV: 1.0
*-
